svg/technitium.svg

<?xml version="1.0" encoding="utf-8"?>
<!-- Generator: Adobe Illustrator 28.2.0, SVG Export Plug-In . SVG Version: 6.00 Build 0)  -->
<svg version="1.1" id="Layer_1" xmlns="http://www.w3.org/2000/svg" xmlns:xlink="http://www.w3.org/1999/xlink" x="0px" y="0px"
	 viewBox="0 0 512 512" style="enable-background:new 0 0 512 512;" xml:space="preserve">
<style type="text/css">
	.st0{fill:#6698FE;}
	.st1{fill:#FEFEFE;}
</style>
<path class="st0" d="M512,512c-170.6,0-341.3,0-512,0C0,341.4,0,170.8,0,0c170.6,0,341.3,0,512,0C512,170.6,512,341.3,512,512z
	 M118.1,85.8c0,71.1,0,141.4,0,211.7c21.6,0,42.5,0,63.9,0c0-70.6,0-140.9,0-211.8c70.9,0,141.2,0,211.6,0c0-21.6,0-42.5,0-63.4
	c-124,0-247.7,0-371.3,0c0,21.4,0,42.3,0,63.5C54.2,85.8,85.6,85.8,118.1,85.8z M214.1,182.1c70.8,0,141.2,0,212.1,0
	c0,70.9,0,141.2,0,211.6c21.4,0,42.3,0,63.4,0c0-124,0-247.7,0-371.5c-21.3,0-42.2,0-63.8,0c0,32,0,63.7,0,96
	c-70.9,0-141.2,0-211.6,0C214.1,139.5,214.1,160.3,214.1,182.1z M22.3,118.1c0,124.2,0,247.9,0,371.6c21.3,0,42.2,0,63.7,0
	c0-31.9,0-63.5,0-95.8c70.9,0,141.2,0,211.6,0c0-21.6,0-42.5,0-64.1c-70.7,0-141.1,0-211.9,0c0-70.9,0-141.2,0-211.7
	C64.4,118.1,43.6,118.1,22.3,118.1z M118.1,489.6c124.1,0,247.8,0,371.5,0c0-21.3,0-42.3,0-63.7c-31.9,0-63.5,0-95.8,0
	c0-70.9,0-141.3,0-211.7c-21.6,0-42.5,0-64.1,0c0,70.7,0,141.1,0,212c-70.9,0-141.2,0-211.6,0C118.1,447.5,118.1,468.3,118.1,489.6z
	"/>
<path class="st1" d="M118.1,85.8c-32.5,0-64,0-95.8,0c0-21.2,0-42.2,0-63.5c123.6,0,247.3,0,371.3,0c0,20.9,0,41.8,0,63.4
	c-70.4,0-140.7,0-211.6,0c0,70.9,0,141.2,0,211.8c-21.4,0-42.3,0-63.9,0C118.1,227.3,118.1,156.9,118.1,85.8z M214.1,182.1
	c0-21.8,0-42.6,0-63.9c70.4,0,140.7,0,211.6,0c0-32.2,0-63.9,0-96c21.6,0,42.5,0,63.8,0c0,123.7,0,247.5,0,371.5
	c-21.1,0-42,0-63.4,0c0-70.4,0-140.7,0-211.6C355.3,182.1,285,182.1,214.1,182.1z M22.3,118.1c21.2,0,42,0,63.3,0
	c0,70.5,0,140.7,0,211.7c70.9,0,141.2,0,211.9,0c0,21.6,0,42.5,0,64.1c-70.4,0-140.7,0-211.6,0c0,32.3,0,63.9,0,95.8
	c-21.4,0-42.3,0-63.7,0C22.3,366,22.3,242.3,22.3,118.1z M118.1,489.6c0-21.3,0-42.1,0-63.4c70.4,0,140.7,0,211.6,0
	c0-70.9,0-141.3,0-212c21.6,0,42.5,0,64.1,0c0,70.4,0,140.8,0,211.7c32.3,0,63.8,0,95.8,0c0,21.4,0,42.3,0,63.7
	C366,489.6,242.3,489.6,118.1,489.6z"/>
</svg>

<svg xmlns="http://www.w3.org/2000/svg" xml:space="preserve" viewBox="0 0 512 512"><path d="M512 512H0V0h512zM118.1 85.8v211.7H182V85.7h211.6V22.3H22.3v63.5zm96 96.3h212.1v211.6h63.4V22.2h-63.8v96H214.2c-.1 21.3-.1 42.1-.1 63.9m-191.8-64v371.6H86v-95.8h211.6v-64.1H85.7V118.1zm95.8 371.5h371.5v-63.7h-95.8V214.2h-64.1v212H118.1z" style="fill:#6698fe"/><path d="M118.1 85.8H22.3V22.3h371.3v63.4H182v211.8h-63.9zm96 96.3v-63.9h211.6v-96h63.8v371.5h-63.4V182.1zm-191.8-64h63.3v211.7h211.9v64.1H85.9v95.8H22.2c.1-123.7.1-247.4.1-371.6m95.8 371.5v-63.4h211.6v-212h64.1v211.7h95.8v63.7z" style="fill:#fefefe"/></svg>
